src/static/logos/6px.svg

<?xml version="1.0" encoding="UTF-8" standalone="no"?>
<svg width="256px" height="265px" viewBox="0 0 256 265" version="1.1" xmlns="http://www.w3.org/2000/svg" xmlns:xlink="http://www.w3.org/1999/xlink" preserveAspectRatio="xMidYMid">
	<g>
		<path d="M192.133677,57.9540208 C183.118607,57.9540208 174.103537,59.8858215 168.952069,61.8176222 C168.952069,61.8176222 176.679272,55.3782865 190.84581,53.4464858 C186.338275,23.1816083 159.293065,0 126.371962,0 C90.3116824,0 61.2541803,29.0575021 61.2541803,65.1177817 C61.2541803,72.2010509 63.185981,83.1479215 65.7617152,90.2311907 C65.7617152,90.2311907 59.3223796,83.791855 56.1027118,68.3374495 C23.9060336,70.2692502 2.84217094e-14,96.6705263 2.84217094e-14,128.947696 C2.84217094e-14,162.512733 27.0452097,189.557943 59.9663132,189.557943 L59.9663132,189.557943 L59.9663132,189.557943 L59.9663132,189.557943 L59.9663132,189.557943 L61.2541803,189.557943 C61.2541803,185.050408 61.2541803,180.542873 62.5420474,176.035338 C63.8299146,170.239936 65.7617152,164.444534 68.9813831,159.293065 L68.9813831,159.293065 L68.9813831,159.293065 L68.9813831,159.293065 L68.9813831,159.293065 C71.5571173,154.78553 74.1328516,150.921929 77.3525194,147.058328 L123.796228,81.940546 L123.796228,81.940546 C127.659829,77.4330111 132.811298,74.8572768 137.962766,74.2133433 C142.470301,73.5694097 146.977836,74.8572768 150.841437,77.4330111 L151.485371,78.0769447 L152.129305,78.7208782 C156.636839,82.5844796 159.212574,87.7359481 159.856507,92.8874166 C160.500441,97.3949516 159.212574,101.902487 156.636839,105.766088 L156.636839,106.410021 L139.975059,129.59163 C145.126527,130.879497 149.634062,132.811298 154.141597,135.387032 C164.444534,141.182434 173.459604,149.55357 179.89894,160.500441 C183.762541,167.58371 186.338275,176.035338 186.982209,184.325983 L186.982209,184.325983 L186.982209,191.409252 L190.84581,191.409252 L190.84581,191.409252 C226.90609,191.409252 255.963592,162.35175 255.963592,126.29147 C257.170967,87.0115229 228.193957,57.9540208 192.133677,57.9540208 L192.133677,57.9540208 Z" fill="#009BDF"></path>
		<path d="M167.403135,215.232602 L148.142947,215.232602 L148.142947,183.774295 C148.142947,171.576176 137.870846,161.304075 125.672727,161.304075 C113.474608,161.304075 103.202508,171.576176 103.202508,183.774295 L103.202508,215.232602 L83.9423197,215.232602 C81.3742947,215.232602 79.4482759,216.516614 79.4482759,218.442633 C79.4482759,220.368652 80.7322884,221.652665 84.584326,226.146708 C96.7824451,238.344828 114.116614,256.321003 115.400627,258.247022 C117.968652,260.815047 120.536677,264.025078 125.030721,264.025078 L125.030721,264.025078 L125.030721,264.025078 C129.524765,264.025078 132.09279,260.815047 134.660815,258.247022 C136.586834,256.321003 153.921003,238.264577 165.477116,226.146708 C169.329154,222.294671 170.613166,220.368652 170.613166,218.442633 C171.255172,215.794357 169.329154,215.232602 167.403135,215.232602 L167.403135,215.232602 Z" fill="#3B3A3C"></path>
	</g>
</svg>

<svg width="256" height="265" xmlns="http://www.w3.org/2000/svg" preserveAspectRatio="xMidYMid"><path d="M192.134 57.954c-9.015 0-18.03 1.932-23.182 3.864 0 0 7.727-6.44 21.894-8.372C186.338 23.182 159.293 0 126.372 0c-36.06 0-65.118 29.058-65.118 65.118 0 7.083 1.932 18.03 4.508 25.113 0 0-6.44-6.44-9.66-21.894C23.907 70.27 0 96.671 0 128.947c0 33.566 27.045 60.61 59.966 60.61h1.288c0-4.507 0-9.014 1.288-13.522 1.288-5.795 3.22-11.59 6.44-16.742 2.575-4.507 5.15-8.371 8.37-12.235l46.444-65.117c3.864-4.508 9.015-7.084 14.167-7.728 4.507-.644 9.015.644 12.878 3.22l.644.644.644.644c4.508 3.863 7.084 9.015 7.728 14.166.643 4.508-.644 9.015-3.22 12.88v.643l-16.662 23.182c5.152 1.287 9.66 3.22 14.167 5.795 10.303 5.795 19.318 14.167 25.757 25.113 3.864 7.084 6.44 15.535 7.083 23.826v7.083h3.864c36.06 0 65.118-29.057 65.118-65.118 1.207-39.28-27.77-68.337-63.83-68.337z" fill="#009BDF"/><path d="M167.403 215.233h-19.26v-31.459c0-12.198-10.272-22.47-22.47-22.47-12.198 0-22.47 10.272-22.47 22.47v31.459h-19.26c-2.569 0-4.495 1.284-4.495 3.21s1.284 3.21 5.136 7.704c12.198 12.198 29.533 30.174 30.817 32.1 2.568 2.568 5.136 5.778 9.63 5.778 4.494 0 7.062-3.21 9.63-5.778 1.926-1.926 19.26-19.982 30.816-32.1 3.852-3.852 5.136-5.778 5.136-7.704.642-2.649-1.284-3.21-3.21-3.21z" fill="#3B3A3C"/></svg>
